engine-ui/packages/console-ui/dist/public/rdos/img/icon/fly.svg

<?xml version="1.0" standalone="no"?><!DOCTYPE svg PUBLIC "-//W3C//DTD SVG 1.1//EN" "http://www.w3.org/Graphics/SVG/1.1/DTD/svg11.dtd"><svg t="1493193665203" class="icon" style="" viewBox="0 0 1024 1024" version="1.1" xmlns="http://www.w3.org/2000/svg" p-id="28275" xmlns:xlink="http://www.w3.org/1999/xlink" width="200" height="200"><defs><style type="text/css"></style></defs><path d="M63.508429 465.38124l266.148639 157.137877 129.175011 265.175475L594.278935 775.795035l159.065785 93.937462 205.78176-733.767849L63.508429 465.38124zM457.356472 671.712515l-0.115634 130.788765L366.081653 615.341646l432.343799-326.936097L457.356472 671.712515zM146.170081 472.827839 826.068022 222.781946 342.290807 588.618005 146.170081 472.827839zM731.261773 815.33968 499.371378 678.409031l394.754692-443.757756L731.261773 815.33968z" p-id="28276"></path></svg>

<svg class="icon" viewBox="0 0 1024 1024" xmlns="http://www.w3.org/2000/svg" width="200" height="200"><defs><style/></defs><path d="M63.508 465.381l266.15 157.138 129.174 265.176 135.447-111.9 159.066 93.937 205.781-733.767L63.508 465.38zm393.848 206.332l-.115 130.788-91.16-187.16 432.344-326.935-341.069 383.307zM146.17 472.828l679.898-250.046-483.777 365.836-196.12-115.79zM731.262 815.34l-231.89-136.931 394.754-443.758L731.262 815.34z"/></svg>
